X:1
T:EGO SUM PANIS VIVUS
T:EGO SUM PANIS VIVUS
T:Enrico Vercesi
C:Enrico Vercesi
%%score [ 1 2 3 4 ]
L:1/8
Q:1/4=96
M:4/4
K:Gmin
V:1 treble nm="Soprano" snm="S"
V:2 treble nm="Alto" snm="A"
V:3 treble-8 nm="Tenore" snm="T"
V:4 bass nm="Basso" snm="B"
V:1
 B8 | A6 A2 | G4 G4 | A4 !breath!A4 | d8 | c4 c4 | B4 B4 | c4- d4 | !breath!d8 | d8- | %10
w: E-|go sum|pa- nis|vi- vus,|e-|go sum|pa- nis|vi- *|vus,|qui|
 d2 c2 c2- B2 | B2- A2 A2- G2 | G2- F2 G4 | z8 | z8 | z8 | z8 | z8 | d4 d-cBA | B3 B B4 | %20
w: * de cae- *|lo * de- *|scen- * di.||||||Si quis * man- du-|ca- ve- rit,|
 c2 A2 (BG) A2 | B4 A2 (Ge) | d4 d2 (cB) | A4 G-ABc | d4 (e2 dc | B4) c2 B2 | A2 z2 A2 A2 | B4 A4 | %28
w: man- du- ca- * *||* ve- rit, *|si quis * man- du-|ca- * * *|* * ve-|rit, ex hoc|pa- ne,|
 z4 A2 A2 | G8 | G8 | z8 | B2 (AG) A2 cd | e2 d2 (cB) A2 | (G4 F4) | G2 z2 d2 c2 | z4 e2 d2 | %37
w: ex hoc|pa-|ne,||vi- * * vet in ae-|ter- * * * *||num, vi- vet,|vi- vet|
 z2 ef d2 c2 | B2 (AG) c2 d2 | d8 |] %40
w: in ae- ter- *||num.|
V:2
 G8 | F6 F2 | D4 C4 | D4 !breath!D4 | F8 | F4 G2- A2 | A4 G4 | G6 A2 | G2- B2 A4 | z4 G4 | G4 F4 | %11
w: E-|go sum|pa- nis|vi- vus,|e-|go sum *|pa- nis|vi- vus,|vi- * vus,|qui|de cae-|
 E4 D4 | C4 D4 | z4 G4 | F4 E4 | D4 C4 | D8 | D6 z2 | z8 | G4 G-FED | E3 E E2 EF | G2 F2 E2 (DC) | %22
w: lo de-|scen- di,|qui|de cae-|lo de-|scen-|di.||Si quis * man- du-|ca- ve- rit, man- du-|ca- * * * *|
 G2 A2 A4 | D4 E-FGA | (B6 A2 | G4) (G3 F) | E2 z2 E2 E2 | G4 F4 | z4 F2 F2 | (F4 E2 D2) | E8 | %31
w: * ve- rit,|si quis * man- du-|ca- *|* ve- *|rit, ex hoc|pa- ne,|ex hoc|pa- * *|ne,|
 z4 D4- | D4 E2 FF | G2 F2 E2 C2 | D8 | D2 z2 G2 G2 | z4 (EF) G2 | G2 G2 G4 | (AGAB) A4 | A8 |] %40
w: vi-|* vet in ae-|ter- * * *||num, vi- vet,|vi- * vet|in ae- ter-||num.|
V:3
 d8 | d6 c2 | B6 A2 | A4 !breath!A4 | B8 | A4 f2- e2 | d8- | d2 c2 c4 | B2- G2 A4 | z4 B4 | e4 d4 | %11
w: E-|go sum|pa- nis|vi- vus,|e-|go sum *|pa-|* * nis|vi- * vus,|qui|de cae-|
 c4 B4 | A4 G4 | z4 e4 | d4 c4 | B4 A4 | A4 B2- c2 | d6 z2 | z8 | z8 | z8 | z8 | z4 d4 | %23
w: lo de-|scen- di|qui|de cae-|lo de|scen- * *|di.|||||Si|
 d-cBA B2 (de) | (g8 | f2) (ed) c2- d2 | c2 z2 c2 c2 | d4 d4 | z4 c2 c2 | B8 | B8 | z8 | %32
w: quis * man- du- ca- * *||* * * ve- *|rit, ex hoc|pa- ne,|ex hoc|pa-|ne,||
 G2 (AB) cdef | (e2 f2 c4) | A8 | B2 z2 B2 A2 | z4 c2 d2 | z2 Bc e4 | d4- e4 | d8 |] %40
w: vi- vet * in * ae- *|ter- * *||num, vi- vet,|vi- vet|in ae- ter-||num.|
V:4
 G,8 | D,6 D,2 | E,4 E,4 | D,4 !breath!D,4 | (B,,2 C,2 D,2 =E,2) | F,4 F,4 | G,6 F,2 | E,4- D,4 | %8
w: E-|go sum|pa- nis|vi- vus,|e- * * *|go sum|pa- nis|vi- *|
 D,8 | z8 | z8 | z8 | z8 | D6 C2 | C2 B,2 B,2- A,2 | A,2- G,2 G,2 (F,E,) | D,8 | D,6 z2 | z8 | z8 | %20
w: vus,|||||qui de|cae- * lo *|de- * scen- * *||di.|||
 z8 | z8 | z8 | z4 G,4 | G,-F,E,D, C,2 (D,E,) | G,4 E,2 D,-C, | G,2 z2 G,2 G,2 | G,4 D,4 | %28
w: |||Si|quis * man- du- ca- * *|* ve- * *|rit, ex hoc|pa- ne,|
 z4 D,2 D,2 | E,8 | !breath!C,8 | B,,2 A,,G,, G,2 F,E, | D,2 C,-B,, C,2 A,A, | (B,2 A,2 G,2 A,2) | %34
w: ex hoc|pa-|ne,|vi- vet, * vi- vet, *|vi- * * vet in ae-|ter- * * *|
 D,8 | !breath!E,8 | G,8 | G,8 | G,8 | G,8 |] %40
w: |num,|in|ae-|ter-|num.|

